Flat-Remix-Blue-Dark/apps/scalable/iagno.svg

<svg xmlns="http://www.w3.org/2000/svg" xmlns:xlink="http://www.w3.org/1999/xlink" width="512" height="512" version="1.1" viewBox="0 0 384 384"> <defs> <filter id="alpha" width="100%" height="100%" x="0%" y="0%" filterUnits="objectBoundingBox"> <feColorMatrix in="SourceGraphic" type="matrix" values="0 0 0 0 1 0 0 0 0 1 0 0 0 0 1 0 0 0 1 0"/> </filter> <mask id="mask0"> <g filter="url(#alpha)"> <rect width="384" height="384" x="0" y="0" style="fill:rgb(0%,0%,0%);fill-opacity:0.301961"/> </g> </mask> <clipPath id="clip1"> <rect width="384" height="384" x="0" y="0"/> </clipPath> <g id="surface5" clip-path="url(#clip1)"> <path style="fill:rgb(100.000%,100.000%,100.000%)" d="M 40.125 23.25 C 30.777344 23.25 23.25 30.777344 23.25 40.125 L 23.25 48.5625 C 23.25 39.214844 30.777344 31.6875 40.125 31.6875 L 343.875 31.6875 C 353.222656 31.6875 360.75 39.214844 360.75 48.5625 L 360.75 40.125 C 360.75 30.777344 353.222656 23.25 343.875 23.25 Z M 40.125 23.25"/> </g> <mask id="mask1"> <g filter="url(#alpha)"> <rect width="384" height="384" x="0" y="0" style="fill:rgb(0%,0%,0%);fill-opacity:0.301961"/> </g> </mask> <clipPath id="clip2"> <rect width="384" height="384" x="0" y="0"/> </clipPath> <g id="surface8" clip-path="url(#clip2)"> <path style="fill:rgb(0%,0%,0%)" d="M 40.125 360.75 C 30.777344 360.75 23.25 353.222656 23.25 343.875 L 23.25 335.4375 C 23.25 344.785156 30.777344 352.3125 40.125 352.3125 L 343.875 352.3125 C 353.222656 352.3125 360.75 344.785156 360.75 335.4375 L 360.75 343.875 C 360.75 353.222656 353.222656 360.75 343.875 360.75 Z M 40.125 360.75"/> </g> <mask id="mask2"> <g filter="url(#alpha)"> <rect width="384" height="384" x="0" y="0" style="fill:rgb(0%,0%,0%);fill-opacity:0.101961"/> </g> </mask> <linearGradient id="linear0" x1="-44" x2="-24" y1="-24" y2="-24" gradientTransform="matrix(0,-8.4375,-8.4375,0,-10.5,-10.5)" gradientUnits="userSpaceOnUse"> <stop offset="0" style="stop-color:rgb(0%,0%,0%);stop-opacity:0"/> <stop offset="1" style="stop-color:rgb(0%,0%,0%)"/> </linearGradient> <clipPath id="clip3"> <rect width="384" height="384" x="0" y="0"/> </clipPath> <g id="surface11" clip-path="url(#clip3)"> <path style="fill:url(#linear0)" d="M 360.75 343.875 L 360.75 192 L 23.25 192 L 23.25 343.875 C 23.25 353.222656 30.777344 360.75 40.125 360.75 L 343.875 360.75 C 353.222656 360.75 360.75 353.222656 360.75 343.875 Z M 360.75 343.875"/> </g> <mask id="mask3"> <g filter="url(#alpha)"> <rect width="384" height="384" x="0" y="0" style="fill:rgb(0%,0%,0%);fill-opacity:0.101961"/> </g> </mask> <linearGradient id="linear1" x1="-44" x2="-24" y1="-24" y2="-24" gradientTransform="matrix(-8.4375,0,0,-8.4375,-10.5,-10.5)" gradientUnits="userSpaceOnUse"> <stop offset="0" style="stop-color:rgb(0%,0%,0%);stop-opacity:0"/> <stop offset="1" style="stop-color:rgb(0%,0%,0%)"/> </linearGradient> <clipPath id="clip4"> <rect width="384" height="384" x="0" y="0"/> </clipPath> <g id="surface14" clip-path="url(#clip4)"> <path style="fill:url(#linear1)" d="M 343.875 360.75 L 192 360.75 L 192 23.25 L 343.875 23.25 C 353.222656 23.25 360.75 30.777344 360.75 40.125 L 360.75 343.875 C 360.75 353.222656 353.222656 360.75 343.875 360.75 Z M 343.875 360.75"/> </g> <mask id="mask4"> <g filter="url(#alpha)"> <rect width="384" height="384" x="0" y="0" style="fill:rgb(0%,0%,0%);fill-opacity:0.301961"/> </g> </mask> <clipPath id="clip5"> <rect width="384" height="384" x="0" y="0"/> </clipPath> <g id="surface17" clip-path="url(#clip5)"> <path style="fill:rgb(0%,0%,0%)" d="M 116.0625 61.5 C 83.441406 61.5 57 87.941406 57 120.5625 C 57 153.183594 83.441406 179.625 116.0625 179.625 C 148.683594 179.625 175.125 153.183594 175.125 120.5625 C 175.125 87.941406 148.683594 61.5 116.0625 61.5 Z M 267.9375 61.5 C 235.316406 61.5 208.875 87.941406 208.875 120.5625 C 208.875 153.183594 235.316406 179.625 267.9375 179.625 C 300.558594 179.625 327 153.183594 327 120.5625 C 327 87.941406 300.558594 61.5 267.9375 61.5 Z M 116.0625 221.8125 C 83.441406 221.8125 57 248.253906 57 280.875 C 57 313.496094 83.441406 339.9375 116.0625 339.9375 C 148.683594 339.9375 175.125 313.496094 175.125 280.875 C 175.125 248.253906 148.683594 221.8125 116.0625 221.8125 Z M 267.9375 221.8125 C 235.316406 221.8125 208.875 248.253906 208.875 280.875 C 208.875 313.496094 235.316406 339.9375 267.9375 339.9375 C 300.558594 339.9375 327 313.496094 327 280.875 C 327 248.253906 300.558594 221.8125 267.9375 221.8125 Z M 267.9375 221.8125"/> </g> </defs> <g> <path style="fill:rgb(21.176%,48.235%,94.117%)" d="M 360.75 343.875 L 360.75 40.125 C 360.75 30.804688 353.195312 23.25 343.875 23.25 L 40.125 23.25 C 30.804688 23.25 23.25 30.804688 23.25 40.125 L 23.25 343.875 C 23.25 353.195312 30.804688 360.75 40.125 360.75 L 343.875 360.75 C 353.195312 360.75 360.75 353.195312 360.75 343.875 Z M 360.75 343.875"/> <use mask="url(#mask0)" xlink:href="#surface5"/> <use mask="url(#mask1)" xlink:href="#surface8"/> <use mask="url(#mask2)" xlink:href="#surface11"/> <use mask="url(#mask3)" xlink:href="#surface14"/> <use mask="url(#mask4)" xlink:href="#surface17"/> <path style="fill:rgb(100.000%,100.000%,100.000%)" d="M 175.125 116.0625 C 175.125 148.683594 148.683594 175.125 116.0625 175.125 C 83.441406 175.125 57 148.683594 57 116.0625 C 57 83.441406 83.441406 57 116.0625 57 C 148.683594 57 175.125 83.441406 175.125 116.0625 Z M 175.125 116.0625"/> <path style="fill:rgb(21.960%,23.529%,29.019%)" d="M 175.125 276.375 C 175.125 308.996094 148.683594 335.4375 116.0625 335.4375 C 83.441406 335.4375 57 308.996094 57 276.375 C 57 243.753906 83.441406 217.3125 116.0625 217.3125 C 148.683594 217.3125 175.125 243.753906 175.125 276.375 Z M 175.125 276.375"/> <path style="fill:rgb(100.000%,100.000%,100.000%)" d="M 327 276.375 C 327 243.753906 300.558594 217.3125 267.9375 217.3125 C 235.316406 217.3125 208.875 243.753906 208.875 276.375 C 208.875 308.996094 235.316406 335.4375 267.9375 335.4375 C 300.558594 335.4375 327 308.996094 327 276.375 Z M 327 276.375"/> <path style="fill:rgb(21.960%,23.529%,29.019%)" d="M 327 116.0625 C 327 83.441406 300.558594 57 267.9375 57 C 235.316406 57 208.875 83.441406 208.875 116.0625 C 208.875 148.683594 235.316406 175.125 267.9375 175.125 C 300.558594 175.125 327 148.683594 327 116.0625 Z M 327 116.0625"/> </g> </svg>

<svg width="512" height="512" version="1.1" viewBox="0 0 384 384" xmlns="http://www.w3.org/2000/svg" xmlns:xlink="http://www.w3.org/1999/xlink"><defs><linearGradient id="a" x1="-44" x2="-24" y1="-24" y2="-24" gradientTransform="matrix(0,-8.4375,-8.4375,0,-10.5,-10.5)" gradientUnits="userSpaceOnUse"><stop stop-opacity="0" offset="0"/><stop offset="1"/></linearGradient><clipPath><rect width="384" height="384"/></clipPath><linearGradient id="c" x1="-44" x2="-24" y1="-24" y2="-24" gradientTransform="matrix(0,-8.4375,-8.4375,0,-10.5,-10.5)" gradientUnits="userSpaceOnUse" xlink:href="#a"/><linearGradient id="b" x1="-44" x2="-24" y1="-24" y2="-24" gradientTransform="matrix(-8.4375 0 0 8.4375 -10.5 394.5)" gradientUnits="userSpaceOnUse" xlink:href="#a"/><clipPath><rect width="384" height="384"/></clipPath><clipPath><rect width="384" height="384"/></clipPath><clipPath><rect width="384" height="384"/></clipPath><clipPath><rect width="384" height="384"/></clipPath><clipPath><rect width="384" height="384"/></clipPath></defs><path d="m40.125 23.25c-9.3477 0-16.875 7.5273-16.875 16.875v8.4375c0-9.3477 7.5273-16.875 16.875-16.875h303.75c9.3477 0 16.875 7.5273 16.875 16.875v-8.4375c0-9.3477-7.5273-16.875-16.875-16.875z" fill="#fff" opacity=".1"/><path d="m360.75 343.88v-303.75c0-9.3203-7.5547-16.875-16.875-16.875h-303.75c-9.3203 0-16.875 7.5547-16.875 16.875v303.75c0 9.3203 7.5547 16.875 16.875 16.875h303.75c9.3203 0 16.875-7.5547 16.875-16.875z" fill="#357af0"/><path d="m343.88 23.25h-151.87v337.5h151.87c9.3477 0 16.875-7.5274 16.875-16.875v-303.75c0-9.3477-7.5273-16.875-16.875-16.875z" fill="url(#b)" opacity=".1"/><path d="m40.125 23.25c-9.3477 0-16.875 7.5273-16.875 16.875v8.4375c0-9.3477 7.5273-16.875 16.875-16.875h303.75c9.3477 0 16.875 7.5273 16.875 16.875v-8.4375c0-9.3477-7.5273-16.875-16.875-16.875z" fill="#fff" opacity=".2"/><path d="m267.94 61.5c-32.621 0-59.062 26.441-59.062 59.062 0 32.621 26.441 59.062 59.062 59.062s59.062-26.441 59.062-59.062c0-32.621-26.441-59.062-59.062-59.062z" fill="#353a4a" opacity=".3"/><path d="m360.75 343.88v-151.88h-337.5v151.88c0 9.3477 7.5273 16.875 16.875 16.875h303.75c9.3477 0 16.875-7.5273 16.875-16.875z" fill="url(#c)" opacity=".1"/><g fill="#353a4a"><path d="m116.06 221.81c-32.621 0-59.062 26.441-59.062 59.062s26.441 59.062 59.062 59.062c32.621 0 59.062-26.441 59.062-59.062s-26.441-59.062-59.062-59.062z" opacity=".3"/><path d="m175.12 276.38c0 32.621-26.441 59.062-59.062 59.062-32.621 0-59.062-26.441-59.062-59.062s26.441-59.062 59.062-59.062c32.621 0 59.062 26.441 59.062 59.062z"/><path d="m327 116.06c0-32.621-26.441-59.062-59.062-59.062s-59.062 26.441-59.062 59.062c0 32.621 26.441 59.062 59.062 59.062s59.062-26.441 59.062-59.062z"/></g><g><path d="m116.06 61.5c-32.621 0-59.062 26.441-59.062 59.062 0 32.621 26.441 59.062 59.062 59.062 32.621 0 59.062-26.441 59.062-59.062 0-32.621-26.441-59.062-59.062-59.062z" opacity=".3"/><path d="m267.94 221.81c-32.621 0-59.062 26.441-59.062 59.062s26.441 59.062 59.062 59.062 59.062-26.441 59.062-59.062-26.441-59.062-59.062-59.062z" opacity=".3"/><path d="m267.94 221.81"/></g><path d="m327 276.38c0-32.621-26.441-59.062-59.062-59.062s-59.062 26.441-59.062 59.062 26.441 59.062 59.062 59.062 59.062-26.441 59.062-59.062z" fill="#fff"/><path d="m175.12 116.06c0 32.621-26.441 59.062-59.062 59.062-32.621 0-59.062-26.441-59.062-59.062 0-32.621 26.441-59.062 59.062-59.062 32.621 0 59.062 26.441 59.062 59.062z" fill="#fff"/><path d="m40.125 360.75c-9.3477 0-16.875-7.5273-16.875-16.875v-8.4375c0 9.3477 7.5273 16.875 16.875 16.875h303.75c9.3477 0 16.875-7.5273 16.875-16.875v8.4375c0 9.3477-7.5273 16.875-16.875 16.875z" opacity=".3"/></svg>
